packages/icons/web/circle_help_large.svg

<svg width="24" height="24" viewBox="0 0 24 24" fill="none" xmlns="http://www.w3.org/2000/svg">
<path fill-rule="evenodd" clip-rule="evenodd" d="M12 4C7.58172 4 4 7.58172 4 12C4 16.4183 7.58172 20 12 20C16.4183 20 20 16.4183 20 12C20 7.58172 16.4183 4 12 4ZM2 12C2 6.47715 6.47715 2 12 2C17.5228 2 22 6.47715 22 12C22 17.5228 17.5228 22 12 22C6.47715 22 2 17.5228 2 12ZM10.419 8.46829C10.1552 8.70567 10 9.04721 10 9.5C10 10.0523 9.55228 10.5 9 10.5C8.44772 10.5 8 10.0523 8 9.5C8 8.55279 8.34478 7.64433 9.08103 6.98171C9.80929 6.32628 10.8204 6 12 6C13.1796 6 14.1907 6.32628 14.919 6.9817C15.6552 7.64433 16 8.55278 16 9.5C16 10.3017 15.6793 10.8957 15.2283 11.3342C14.8818 11.6711 14.4402 11.925 14.1215 12.1083C14.0801 12.1322 14.0407 12.1548 14.0039 12.1763C13.6275 12.3958 13.3931 12.5553 13.2355 12.7435C13.1096 12.8938 13 13.1023 13 13.5C13 14.0523 12.5523 14.5 12 14.5C11.4477 14.5 11 14.0523 11 13.5C11 12.6477 11.2653 11.9812 11.702 11.4596C12.1069 10.976 12.6225 10.6667 12.9961 10.4487L13.1054 10.3851C13.4676 10.1743 13.6783 10.0517 13.8342 9.90019C13.9457 9.79179 14 9.69828 14 9.5C14 9.04722 13.8448 8.70567 13.581 8.4683C13.3093 8.22372 12.8204 8 12 8C11.1796 8 10.6907 8.22372 10.419 8.46829ZM13 16.5C13 15.9477 12.5523 15.5 12 15.5C11.4477 15.5 11 15.9477 11 16.5V17.1C11 17.6523 11.4477 18.1 12 18.1C12.5523 18.1 13 17.6523 13 17.1V16.5Z" fill="#212933"/>
</svg>

<svg width="24" height="24" fill="none" xmlns="http://www.w3.org/2000/svg">
    <path fill-rule="evenodd" clip-rule="evenodd" d="M12 4a8 8 0 100 16 8 8 0 000-16zM2 12C2 6.477 6.477 2 12 2s10 4.477 10 10-4.477 10-10 10S2 17.523 2 12zm8.419-3.532c-.264.238-.419.58-.419 1.032a1 1 0 11-2 0c0-.947.345-1.856 1.081-2.518C9.809 6.326 10.821 6 12 6c1.18 0 2.19.326 2.919.982C15.655 7.644 16 8.552 16 9.5c0 .802-.32 1.396-.772 1.834-.346.337-.788.591-1.107.774l-.117.068c-.377.22-.61.38-.768.567-.126.15-.236.36-.236.757a1 1 0 11-2 0c0-.852.265-1.519.702-2.04.405-.484.92-.793 1.294-1.011l.11-.064c.362-.21.572-.333.728-.485A.479.479 0 0014 9.5c0-.453-.155-.794-.419-1.032C13.309 8.224 12.821 8 12 8c-.82 0-1.31.224-1.581.468zM13 16.5a1 1 0 10-2 0v.6a1 1 0 102 0v-.6z" fill="currentColor"/>
</svg>
